X:1383
T:Sollerön West
T:Långdans av Karen Myers  2/2005
C:Karen Myers
Z:[[http://www.bluerose.karenlmyers.org/IncipitsLangdans3.html|Karen Myers (#2479)]]
M:3/4
L:1/8
R:Långdans
N:Komponerad för att få ett alternativ till [[Musik/1240|+]]
K:Dm
A2 |: d2 fe d2 | e2 A2 c2 | d2 e2 c2 | d2 A2 c2 | d2 fe d2 | e2 A2 c2 |
d2 A2 G2 |1 F4 A2 :|2 F4 f2 |: e2 c2 e2 | d3 A A2 |
e2 c2 e2 | d2 A2 G2 | F2 EF G2 |1 F4 f2 :|2 F4 z2 |]
(:musicend:)

(:music:)
